X:1
T:Light Beyond the Shadows
T:Light Beyond the Shadows
T:Joseph Lincoln Hall
T:Irvin H. Mack, 1900
T:Public Domain Courtesy of the Cyber Hymnal™
T:Public Domain Courtesy of the Cyber Hymnal™
C:Joseph Lincoln Hall
Z:Public Domain
Z:Courtesy of the Cyber Hymnal™
%%score ( 1 2 ) ( 3 4 )
L:1/8
Q:1/4=95
M:4/4
K:Eb
V:1 treble 
V:2 treble 
V:3 bass 
V:4 bass 
V:1
 [GB][GB][GB][Ac] [GB][EG][EF]E | [Ec]2 [Ec]2 [EB]4 | [GB][GB][GB][Ac] [GB][EG][EF]E | %3
w: 1.~When the trou- bles ga- ther and the|bil- lows roll,|Dark the way be- fore you, cares op-|
w: 2.~Though you can- not fa- thom why you’re|called to bear|All the hea- vy bur- dens that you|
w: 3.~Go with faith to con- quer tri- als|that ap- pear;|Know that Christ your Sav- ior with His|
w: 4.~Though se- vere the con- flict and the|an- guish deep,|Though the tri- als hea- vy that may|
w: 5.~“Tried and found not want- ing,” will the|Mas- ter say;|Tried, yet ev- er faith- ful, all a-|
 [CF]2 [CE]2 [DF]4 | [GB][GB][GB][Ac] [GB][EG][EF]E | [Ec]2 [Ec]2 [Ae]4 | %6
w: press the soul,|There is bless- èd sun- shine just be-|yond your view;|
w: can- not share,|Keep the cross be- fore you in the|dark- est day;|
w: help is near;|Ne’er give up the bat- tle, hard though|it may be,|
w: o’er you sweep,|God is al- ways with you, giv- ing|strength to bear|
w: long life’s way;|Tried as in the fur- nace of re-|fin- ing fire,|
 [Ae][Ae][Ad][Ac] [GB][EG]E[EF] | [EG]2 [DF]2 E4 ||"^Refrain" [GB]3 [GB] [Ac] [GB]3 | %9
w: Oft ’tis but a tri- al you are|go- ing through.||
w: Put your trust in Je- sus all a-|long the way.||
w: For your Lord has prom- ised you the|vic- to- ry.|See the sun- light,|
w: All the hea- vy bur- dens when they|shall ap- pear.||
w: You shall see the tri- umph of your|heart’s de- sire.||
 [Ge][Ge][Ge][Ge] [Ge]4 | [GB]3 [GB] [Ac] [GB]3 | [Fd][Fd][Ec][Ec] [DB]4 | [GB]3 [GB] [Ac] [GB]3 | %13
w: ||||
w: ||||
w: shin- ing bright and clear;|Bless- èd sun- light|drives a- way all fear;|Look a- bove you,|
w: ||||
w: ||||
 [Ge][Ge][GB][GB] [Ac]4 | [Ae][Ae][Ad][Ac] [GB][EG]E[EF] | [EG]2 [DF]2 E4 |] %16
w: |||
w: |||
w: clouds will dis- ap- pear;|Put your trust in Je- sus, He is|ev- er near.|
w: |||
w: |||
V:2
 x7 E | x8 | x7 E | x8 | x7 E | x8 | x6 E x | x4 E4 || x8 | x8 | x8 | x8 | x8 | x8 | x6 E x | %15
 x4 E4 |] %16
V:3
 [E,E][E,E][E,E][E,E] [E,E][E,B,][E,A,][E,G,] | [A,,A,]2 [A,,A,]2 [E,G,]4 | %2
 [E,E][E,E][E,E][E,E] [E,E][E,B,][E,A,][E,G,] | [F,=A,]2 [F,A,]2 [B,,B,]4 | %4
 [E,B,][E,B,][E,E][E,E] [E,E][E,B,][E,A,][E,G,] | [A,,A,]2 [A,,A,]2 [A,C]4 | %6
 [A,C][A,C][A,D][A,E] [E,E][E,B,][C,=A,][C,A,] | [B,,B,]2 [B,,A,]2 [E,G,]4 || %8
 [E,E]3 [E,E] [E,E] [E,E]3 | [E,B,][E,B,][E,C][E,C] [E,B,]4 | [E,E]3 [E,E] [E,E] [E,E]3 | %11
 [F,B,][F,B,][F,=A,][F,A,] B,2 D2 | [E,E]3 [E,E] [E,E] [E,E]3 | [E,B,][E,B,][E,_D][E,D] [A,C]4 | %14
 [A,C][A,C][A,D][A,E] [E,E][E,B,][C,=A,][C,B,] | [B,,B,]2 [B,,B,]2 [E,G,]4 |] %16
V:4
 x8 | x8 | x8 | x8 | x6 E, x | x8 | x8 | x8 || x8 | x8 | x8 | x4 B,,4 | x8 | x8 | x8 | x8 |] %16

